X:181
T:Gospel Plow
C:Mike Compton
N:From "To Be His Child" The Nashville Bluegrass Band Transcribed by Mark Dixon Transcribed by Mike Stangeland
R:bluegrass
L:1/8
Q:1/4=153
M:4/4
K:G
z8 | [g2d2D2G,2] [g2d2D2G,2] [g2^A2D2G,2] dc | "G"{^A}BG {A}BG {A}BG {A}Bc | dg dc {^A}"F"Bg dc | 
{^A}"G"BG G2 (3D^C=C B,C | [G2B,2] z2 B2 c2 | d[gd] [gd][gd] [gd][gd] [gd][^ad] | 
[gd]=f dc {^A}BG {A}BG | [G2G,2] [GG,][GG,] [GG,][GG,] [GG,][GG,] | [G2G,2] [GG,][GG,] G^A dA | 
(3"F"[a=f][af][af] (3[af][af][af] (3[af][af][af] (3[af][af][af] | [a4=f4] G^A df | 
(3[bg][bg][bg] (3[bg][bg][bg] (3[bg][bg][bg] (3[bg][bg][bg] | [b4g4] B2 c2 | [g2d2] z2 d2 c2 | 
{^A}B2 G2 "F"A2 =A2 | "G"G2 z2 (3=FED (3FED | G,8 | 


